X: 20049
T: Jimmy Kelly's
R: reel
M: 4/4
K: Dmajor
|:d2dc defe|dABd AGFD|d2dc defe|1 dBAF [E2A2]Ac:|2 dBAF [E2A2]AB||
|:AF~F2 AFBF|AF~F2 A2AB|AF~F2 DEFA|1 BdAF [E2A2]AB:|2 BdAF [D2A2]Ac||

